X:31
T:The Tarbolton                                                                                     
M:4/4                                                                                               
L:1/8                                                                                               
K:EDor                                                                                              
D|Eeed e2 BA|GBAF GFEF|Dddc d2 AF|GBAG FDDF|                                                        
Eeed efge|fedf edBA|GABG FGA=c|BGAF GE E :|                                                         
z|g2 ef gebe|gebe gfef|d2 fd Adfd|ABAG FDDF|                                                        
G2 BG FGAF|Eeef gfed|B2 dB AGFA|BGAF GE E :|
